X: 4007
T: JESSIE
R: Strathspey.
%R: strathspey
B: James Kerr "Merry Melodies" v.4 p.04 #7
Z: 2016 John Chambers <jc:trillian.mit.edu>
M: C
L: 1/8
K: A
uA>uB |\
c<c d>c B<e e>c | A>G A>c B<G A>F |\
E>FE>D C>EA>B | c<c d>c B2 A>B |\
c<c d>c B<e e>c | A>G A>c B<G A>F |\
E>FE>D C>EA>c | B<F G>E A2 |]
A>B |\
c<A A>B c>ff>e | c<A A>B c<A A>c |\
B>GG>A B<e e>c | B<G G>F E2 F>G |\
A<A c>B c<A A>B | c<c e>c d<B B>c |\
d>cd>f e>cA>c | B<F G>E A2 |]

%%sep 1 1 500
%%sep 1 1 500

